X: 8897
T: Curlew Hills, The
R: barndance
M: 4/4
K: Gmajor
|:D2|G>AB>c d>g (3fga|g2 B2 d4|c>eA>B c2 c2|B>dG>A B>cB>A|
.Gz .Bz .d>gf>a|g2 B2 d3 B|c<eA>B c>AF>G|(3ABA G2 G2:|
|:B>c|d2 b2 c2 a2|B>gg>f g>dB>G|F>GA>B c2 B>A|G>FG>A B>^AB>c|
d2 b>B c2 a>A|B>g (3ggg g>d (3BAG|F2 (3GAB c>AF>G|(3ABA G2 G2:|

